svg/distribute_vertical_bottom.svg

<svg xmlns="http://www.w3.org/2000/svg" viewBox="0 0 24 24"><path d="M7 3h10v5h5v2H2V8h5zM2 19v2h20v-2h-3v-5H5v5z"/></svg>

<?xml version="1.0" encoding="UTF-8"?><!DOCTYPE svg PUBLIC "-//W3C//DTD SVG 1.1//EN" "http://www.w3.org/Graphics/SVG/1.1/DTD/svg11.dtd"><svg xmlns="http://www.w3.org/2000/svg" xmlns:xlink="http://www.w3.org/1999/xlink" version="1.1" id="mdi-distribute-vertical-bottom" width="24" height="24" viewBox="0 0 24 24"><path d="M7 3H17V8H22V10H2V8H7V3M2 19V21H22V19H19V14H5V19H2Z" /></svg>
